X:84
T:Planxty Fanny Power
C:Turlough Carolan
R:planxty
E:8
I:speed 400
M:3/4
K:G
D2|G4D2|G3AB2|c4B2|A4G2|F4E2|D3ED2|F4G2|A4c2|\
B3AG2|B3cd2|e4A2|A4G2|F3ED2|D2G2F2|G6|G4:|*
Bc|d2Bcd2|d2Bcd2|G3AG2|G2B2d2|e2cde2|e2cde2|A3BA2|A2B2c2|\
B3cd2|e2f2g2|f2g2a2|d4c2|B3AG2|B4A2|G6|G4:|**
<end>
<start>
